!!!OTL: 71. Gas-nign
!!!Genre:	Gas-nign
!!!Mode:	Minor
!!!Listening/dance:	listening
!!!:	*B-:
!!!One_Mode:	no
**kern
*thru
*I"P1
*clefG2
*k[b-e-]
*>A
!!!Begin-Modulation
*g:
=9:|!|:
!LO:TX:a:i:t=G-minor
4gg
4dd
4cc
12b-L
12a
12gJ
=10
(12b-L
12g)
12b-J
(8qdd/
12ccL)
12b-
12aJ
4.g
8d
=11
12gL
12f#X
12gJ
4dd
(8qdd/
12ccL)
12b-
12ccJ
4b-
=12
12ffnL
12ee-
12ddJ
(8qdd/
12ccL)
12b-
12aJ
2g
=13
4cc
4ff
4gg
(8qbb-/
12aaL)
12gg
12ffJ
=14
12ffL
12ee-
12ddJ
12ccL
12dd
12ee-J
2cc
=15
12b-L
12a
12b-J
(8qdd/
12ccL)
12b-
12ccJ
12b-L
12a
12b-J
(8qb-/
12a-XL)
12g
12a-J
=16
8gL
(8qa/
8g)
(8qa/
8g)
(8qa/
8gJ)
2g
=17:|!|:
*>B
!LO:TX:a:i:t=G-minor
4gg
4dd
4cc
12b-L
12a
12gJ
=10
(12b-L
12g)
12b-J
(8qdd/
12ccL)
12b-
12aJ
4.g
8d
=11
12gL
12f#X
12gJ
4dd
(8qdd/
12ccL)
12b-
12ccJ
4b-
=12
12ffnL
12ee-
12ddJ
(8qdd/
12ccL)
12b-
12aJ
2g
=13
4cc
4ff
4gg
(8qbb-/
12aaL)
12gg
12ffJ
=14
12ffL
12ee-
12ddJ
12ccL
12dd
12ee-J
2cc
=15
12b-L
12a
12b-J
(8qdd/
12ccL)
12b-
12ccJ
12b-L
12a
12b-J
(8qb-/
12a-XL)
12g
12a-J
=16
8gL
(8qa/
8g)
(8qa/
8g)
(8qa/
8gJ)
2g
*>C
!!!Begin-Modulation
*g:
!LO:TX:a:i:t=G-minor
=25:|!|:
(16qqg\LL
16qqa\
16qqb-\
16qqcc\
16qqdd\
16qqee-\
16qqff#X\JJ)
4.gg
8dd
4.gg
8dd
=26
12ffL
12ee-
12ddJ
12ccL
12b-
12ccJ
4.b-
8dd
=27
12ffL
12ee-
12ddJ
8ccL
24b-L
24a
24b-JJ
12ddL
(16qqcc/LL
16qqdd/JJ
12cc)
12b-J
12b-L
(16qqa/LL
16qqb-/JJ
12a)
12gJ
=28
4g
12ggL
12ff
12ee-J
4.dd
8dd
=29
4.gg
8dd
4.gg
8dd
=30
12aa-XL
12gg
12ffJ
12ee-L
12dd
12ccJ
4.b-
8dd
=31
12ffL
12ee-
12ddJ
8ccL
24b-L
24an
24b-JJ
12ddL
(16qqcc/LL
16qqdd/JJ
12cc)
12b-J
12b-L
(16qqa/LL
16qqb-/JJ
12a)
12gJ
=32
8gL
(8qa/
8g)
(8qa/
8g)
(8qa/
8gJ)
(8qa/
2g)
=:|!
*>D
(16qqg\LL
16qqa\
16qqb-\
16qqcc\
16qqdd\
16qqee-\
16qqff#X\JJ)
4.gg
8dd
4.gg
8dd
=26
12ffL
12ee-
12ddJ
12ccL
12b-
12ccJ
4.b-
8dd
=27
12ffL
12ee-
12ddJ
8ccL
24b-L
24a
24b-JJ
12ddL
(16qqcc/LL
16qqdd/JJ
12cc)
12b-J
12b-L
(16qqa/LL
16qqb-/JJ
12a)
12gJ
=28
4g
12ggL
12ff
12ee-J
4.dd
8dd
=29
4.gg
8dd
4.gg
8dd
=30
12aa-XL
12gg
12ffJ
12ee-L
12dd
12ccJ
4.b-
8dd
=31
12ffL
12ee-
12ddJ
8ccL
24b-L
24an
24b-JJ
12ddL
(16qqcc/LL
16qqdd/JJ
12cc)
12b-J
12b-L
(16qqa/LL
16qqb-/JJ
12a)
12gJ
=32
8gL
(8qa/
8g)
(8qa/
8g)
(8qa/
8gJ)
(8qa/
2g)
=:|!
*-
